X:1
T:A chi more per Dio - Anon.
T:James Gibb editions
T:#
%%score [ 1 2 3 4 ]
L:1/8
Q:1/4=88
M:4/4
K:Bb
V:1 treble nm="Soprano" snm="S"
V:2 treble nm="Alto" snm="A"
V:3 treble-8 nm="Tenor" snm="T"
V:4 bass nm="Bass" snm="B"
V:1
"^A chi more per Dio""^Anonymous\n(C17th)" z8 | z8 | z8 | z4 z2 G2 | _A4 GG (c2- | %5
w: |||la|mor- te e vi\-|
[M:4/4] c2 =B2) c4 | z4 z2 d2 | G2 c3 c B2 | =A4 G4 | z4 d4 | e4 dD (G2- | G2 !courtesy!=F2) G4 | %12
w: * * ta,|a|chi mo- re per|Di- o|la|mor- te e vi\-|* * ta,|
 z8 | z8 | d4 G2 c2- | cc B2 A4 | G4 z2 G2 | _A4 G2 (e2- | e2 d2 c2) (f2- | f2 =e2) f4 | z4 G4 | %21
w: ||a, chi mor\-|* te per Di-|o la|mor- te e|* * * vi\-|* * ta,|la|
 _A4 G2 (FE) | F4 G4 | z4 d4 | G2 c3 c B2 | A4 G4 | z8 | z2 G2 _A4 | G2 c2 (B4 | =A4) G4 | %30
w: mor- te e *|vi- ta,|a|chi mo- re per|Di- o||la mor-|te e vi\-|* ta,|
 z4 z2 d2 | G2 c3 c =B2 | c2 =B2 z4 | z4 G4 | _A4 G2 (FE) | F4 G4 | z4 d4 | G2 c3 c B2 | =A4 G4 | %39
w: a|chi mo- re per|Di- o|la|mor- te e *|vi- ta,|a|chi mo- re per|Di- o|
 z8 | z8 | z2 G2 _A4 |[Q:1/4=87] G[Q:1/4=86]G[Q:1/4=84] c4[Q:1/4=82] d2 | %43
w: ||la mor-|te e vi- ta,|
[Q:1/4=81] =B2[Q:1/4=78] (c4[Q:1/4=76] B2) |[Q:1/4=76] c16 |] %45
w: e vi\- *|ta.|
V:2
 z8 | z8 | G4 C2 F2- | FF E2 D4 | C4 z4 |[M:4/4] z2 D2 E4 | DD (G4 ^F2) | G4 z4 | D4 G,2 C2- | %9
w: ||A chi mor\-|* te per Di-|o|la mor-|te e vi\- *|ta,|a chi mor\-|
 CC B,2 (A,4 | B,2 C2 D4) | C4 z4 | G4 C2 F2- | FF E2 (D4- | D2 EF G4 | ^F2 G4 =F2- | F2 E2 D2 G2 | %17
w: * te per Di\-||o,|a chi mor-|* te per Di\-||||
 G2 F2 G4) | F8 | G4 C2 F2- | FF E2 (D4 | C4 D2) E2- | E2 D2 E4 | DD (G4 ^F2) | G4 z4 | z2 D2 (E4 | %26
w: |o|a chi mor-|* te per Di\-|* * o|* la mor-|te e vi\- *|ta,|la mor\-|
 D4) C2 F2- | F2 =E2 F2 C2 | E4 D2 G2- | G2 ^F2 G4 | (^F2 G2) A4 | G4 z4 | z2 G2 C2 F2- | %33
w: * te e|* vi- ta, la|mor- te e|* vi- ta,|e * vi-|ta,|a chi mor\-|
 FF E2 (D4 | C4 D2) E2- | E2 D2 E4 | DD (G4 ^F2) | G4 z4 | z2 D2 E4 | D4 C2 (F2- | F2 E2 D4) | %41
w: * te per Di\-|* * o|* la mor-|te e vi\- *|ta,|la mor-|te e vi-||
 C2 =E2 F4 | G4 _A4 | G8 | G16 |] %45
w: ta, la mor-|te e|vi-|ta.|
V:3
 d4 G2 c2- | cc B2 A4 | G2 G2 _A4 | GG (c4 =B2) | c8 |[M:4/4][K:treble-8] d4 G2 c2- | cc B2 A4 | %7
w: A chi mor\-|* te per Di-|o la mor-|te e vi\- *|ta,|a chi mor\-|* te per Di-|
 G4 z4 | z2 D2 E4 | DD (G4 ^F2 | G2 A2) B2 g2 | c2 f3 f e2 | d4 c2 c2 | (=B2 c4 _B2 | A4) G4 | %15
w: o|la mor-|te e vi\- *|* * ta, a|chi mor- te per|Di- o, per|Di\- * *|* o,|
 z4 d4 | G2 c3 c B2 | c2 d2 e4 | B6 _A2 | G4 F4 | z8 | z8 | z2 d2 G2 c2- | cc B2 A4 | G4 z4 | %25
w: a|chi mor- te per|Di- o la|mor te~e|vi- ta,|||a chi mor\-|* te per Di-|o|
 z2 d4 c2- | c2 B4 _A2 | G4 F4 | z8 | d4 G2 c2- | cc B2 (A4 | =B2 c2) d2 d2 | (_e6 dc) | %33
w: la mor\-|* te e|vi- ta,||a chi mor\-|* te per Di\-|* * o la|mor\- * *|
 _B2 c2 d4 | e4 z4 | z2 d2 G2 c2- | cc B2 A4 | G4 z4 | z2 d4 c2- | c2 B4 A2 | (=B2 c4 B2) | c8- | %42
w: te e vi-|ta,|a chi mo\-|* re per Di-|o|la mor\-|* te e|vi\- * *|ta,|
 c4 z2 f2 | (f2 ec d4) | c16 |] %45
w: * e|vi\- * * *|ta.|
V:4
 z8 | z8 | z8 | z4 G,4 | C,2 F,3 F, E,2 |[M:4/4] D,4 C,4 | z4 D,4 | E,4 D,D, (G,2- | %8
w: |||A|chi mor- te per|Di- o|la|mor- te e vi\-|
 G,2 ^F,2) G,4 | z8 | z4 z2 G,2 | _A,4 G,(G, C2- | C2 B,2 _A,4) | G,6 (G,2- | G,2 F,2) E,4 | D,8 | %16
w: * * ta,||la|mor- te e vi\-||ta, e|* * vi-|ta,|
 z8 | z8 | z8 | z2 G,2 _A,4 | G,G, (C4 B,2 | _A,4 B,2 C2 | B,4) E,4 | z4 D,4 | E,4 D,D, (G,2- | %25
w: |||la mor-|te e vi\- *||* ta,|la|mor- te e vi\-|
 G,2 ^F,2 G,2 A,2 | B,4) =F,2 F,2 | C,4 F,4 | z8 | z2 D,2 E,4 | D,D, (G,4 F,2- | F,2 E,2 D,4) | %32
w: |* ta, e|vi- ta,||la mor-|te e vi\- *||
 C,2 G,2 _A,4 | G,G, (C4 B,2 | _A,4 B,2 C2 | B,4 E,4 | z4 D,4 | E,4 D,D, G,2- | G,2 ^F,2 G,2 A,2 | %39
w: ta, la mor-|te e vi\- *||* ta,|la|mor- te e vi\-||
 B,4 =F,4 | G,2 C,2 G,4) | C,2 C2 _A,4 | =E,4 F,4 | G,8 | C,16 |] %45
w: ||ta, la mor-|te e|vi-|ta.|

